src/icons/Gears_Orange_Comprehension-01.svg

<svg width="50" height="57" viewBox="0 0 50 57" fill="none" xmlns="http://www.w3.org/2000/svg">
<g clip-path="url(#clip0)">
<path d="M32.7905 35.543L30.4148 35.0252C30.3581 34.1548 30.2024 33.2939 29.9506 32.4594L31.9666 31.1595C32.2385 30.9901 32.4674 30.7595 32.6352 30.486C32.8212 30.1713 32.9163 29.8109 32.9097 29.4453C32.9032 29.0797 32.7953 28.7234 32.5981 28.4162L31.1863 26.208C31.0474 25.9899 30.8669 25.8015 30.6552 25.6537C30.4435 25.5058 30.2047 25.4014 29.9525 25.3465C29.7004 25.2915 29.4398 25.287 29.1858 25.3333C28.9317 25.3796 28.6892 25.4758 28.4722 25.6163L26.4237 26.9426C25.7709 26.3634 25.0547 25.8603 24.2888 25.4431L24.8086 23.0582C24.9198 22.5481 24.8246 22.015 24.544 21.576C24.2633 21.137 23.8202 20.8281 23.312 20.7173L20.7576 20.1605C20.2495 20.0497 19.718 20.1461 19.2801 20.4285C18.8421 20.7108 18.5337 21.156 18.4225 21.6661L17.9026 24.0509C17.0332 24.1096 16.1731 24.2668 15.3387 24.5195L14.028 22.4609C13.8891 22.2428 13.7087 22.0544 13.4969 21.9066C13.2852 21.7588 13.0465 21.6544 12.7943 21.5994C12.5421 21.5444 12.2816 21.54 12.0275 21.5863C11.7735 21.6326 11.531 21.7288 11.3139 21.8693L9.11753 23.291C8.68015 23.5734 8.37207 24.0183 8.26097 24.5279C8.14986 25.0376 8.24482 25.5703 8.52499 26.0092L9.83421 28.0742C9.25709 28.7302 8.7567 29.4503 8.34284 30.2204L6.01189 29.7123C5.69903 29.6363 5.37223 29.6389 5.06034 29.7197C4.70955 29.8107 4.39055 29.9973 4.1387 30.2589C3.88685 30.5205 3.71198 30.8468 3.63349 31.2017L3.07448 33.7661C2.96329 34.2762 3.0585 34.8093 3.33917 35.2484C3.61983 35.6874 4.06297 35.9962 4.57108 36.107L6.94673 36.6248C7.003 37.4953 7.15876 38.3562 7.41093 39.1906L5.39496 40.4905C5.12071 40.6569 4.89115 40.8882 4.72634 41.164C4.54032 41.4787 4.44526 41.8391 4.45182 42.2047C4.45838 42.5703 4.56631 42.9266 4.7635 43.2338L6.17529 45.442C6.31419 45.6601 6.49467 45.8485 6.70639 45.9963C6.9181 46.1442 7.15688 46.2486 7.40903 46.3035C7.66119 46.3585 7.92175 46.363 8.17579 46.3167C8.42982 46.2704 8.67233 46.1742 8.8894 46.0337L10.9365 44.7138C11.5926 45.2865 12.3094 45.7851 13.0742 46.2005L12.5529 48.5918C12.4417 49.1019 12.5369 49.635 12.8176 50.074C13.0983 50.5131 13.5414 50.8219 14.0495 50.9327L16.604 51.4895C17.1121 51.6003 17.6436 51.5039 18.0815 51.2215C18.5194 50.9392 18.8279 50.494 18.9391 49.9839L19.4604 47.5926C20.3287 47.5332 21.188 47.3782 22.0229 47.1305L23.3349 49.1827C23.4738 49.4008 23.6543 49.5891 23.866 49.737C24.0777 49.8848 24.3165 49.9892 24.5687 50.0442C24.8208 50.0991 25.0814 50.1036 25.3354 50.0573C25.5895 50.011 25.832 49.9148 26.049 49.7743L28.2454 48.3526C28.6828 48.0702 28.9909 47.6253 29.102 47.1157C29.2131 46.606 29.1181 46.0732 28.838 45.6344L27.526 43.5822C28.1021 42.9255 28.6024 42.2055 29.0173 41.436L31.3483 41.9442C31.6585 42.0181 31.9819 42.0173 32.292 41.9417C32.646 41.8513 32.9679 41.6637 33.2216 41.3998C33.4753 41.136 33.6507 40.8064 33.7281 40.4483L34.2871 37.8839C34.3983 37.3738 34.3031 36.8407 34.0224 36.4016C33.7417 35.9626 33.2986 35.6538 32.7905 35.543ZM18.3885 42.3828C17.0022 42.3225 15.6717 41.821 14.5895 40.951C13.5074 40.081 12.7297 38.8875 12.3692 37.5433C12.0086 36.1991 12.0839 34.774 12.584 33.4742C13.0841 32.1744 13.9832 31.0673 15.1511 30.3133C16.319 29.5592 17.6951 29.1973 19.0802 29.2799C20.4653 29.3625 21.7876 29.8853 22.8557 30.7727C23.9238 31.6601 24.6822 32.866 25.0212 34.2158C25.3602 35.5657 25.2622 36.9894 24.7414 38.2811C24.234 39.5394 23.3506 40.6095 22.2129 41.344C21.0751 42.0786 19.739 42.4415 18.3885 42.3828Z" fill="#C16C37"/>
<path d="M46.4919 16.5432L44.8762 16.1909C44.8458 15.6011 44.7488 15.0167 44.5869 14.449L45.9569 13.5657C46.1297 13.4433 46.274 13.2845 46.3794 13.1004C46.509 12.887 46.5753 12.6411 46.5705 12.3914C46.5656 12.1417 46.4899 11.8987 46.3522 11.691L45.4021 10.1878C45.209 9.89098 44.9073 9.68246 44.562 9.60719C44.2168 9.53193 43.8556 9.59595 43.5565 9.78544L42.1632 10.6838C41.712 10.3025 41.2215 9.97042 40.7001 9.69328L41.0648 8.02004C41.1389 7.67999 41.0755 7.32453 40.8884 7.03186C40.7013 6.73919 40.4058 6.53329 40.0671 6.45945L38.3045 6.07522C37.9658 6.00138 37.6114 6.06564 37.3195 6.25388C37.0276 6.44212 36.8219 6.73892 36.7478 7.07897L36.3872 8.73297C35.7974 8.76495 35.2129 8.86277 34.6445 9.02464L33.7218 7.64157C33.5287 7.34479 33.227 7.13627 32.8817 7.061C32.5365 6.98573 32.1753 7.04975 31.8762 7.23924L30.3804 8.20925C30.2307 8.30191 30.1011 8.42388 29.9994 8.56785C29.8976 8.71183 29.8258 8.87487 29.7883 9.04721C29.7507 9.21956 29.7481 9.39769 29.7807 9.57095C29.8133 9.7442 29.8803 9.90903 29.9779 10.0556L30.8695 11.4587C30.486 11.9075 30.1546 12.3985 29.8815 12.9222L28.2721 12.5714C28.0532 12.516 27.8241 12.5145 27.6042 12.5668C27.3647 12.6349 27.1487 12.7682 26.9799 12.9519C26.8111 13.1356 26.6963 13.3625 26.6482 13.6075L26.268 15.3513C26.1939 15.6913 26.2574 16.0468 26.4445 16.3395C26.6316 16.6321 26.927 16.838 27.2658 16.9119L28.8815 17.2641C28.9118 17.854 29.0089 18.4383 29.1707 19.006L27.8491 19.9133C27.6953 20.0054 27.562 20.1282 27.4573 20.274C27.3527 20.4198 27.279 20.5856 27.2407 20.7611C27.2025 20.9366 27.2005 21.118 27.235 21.2942C27.2694 21.4704 27.3395 21.6375 27.441 21.7852L28.3988 23.2834C28.4908 23.4345 28.6123 23.5653 28.7561 23.6679C28.8999 23.7704 29.0629 23.8427 29.2354 23.8803C29.4078 23.9179 29.5861 23.92 29.7596 23.8866C29.933 23.8532 30.0979 23.7848 30.2444 23.6857L31.6377 22.7874C32.0873 23.171 32.578 23.5032 33.1009 23.7779L32.7473 25.3999C32.7058 25.57 32.6985 25.7467 32.7261 25.9195C32.7537 26.0924 32.8154 26.2579 32.9077 26.4063C33.0001 26.5548 33.1211 26.6831 33.2637 26.7838C33.4063 26.8844 33.5676 26.9554 33.738 26.9925L35.4751 27.3712C35.6455 27.4084 35.8217 27.411 35.9933 27.3788C36.1648 27.3466 36.3283 27.2803 36.474 27.1837C36.6197 27.0872 36.7448 26.9624 36.8418 26.8167C36.9388 26.671 37.0058 26.5073 37.0388 26.3354L37.3868 24.7391C37.9765 24.7069 38.561 24.609 39.1295 24.4474L40.021 25.8505C40.2141 26.1473 40.5159 26.3558 40.8611 26.4311C41.2064 26.5064 41.5676 26.4423 41.8666 26.2529L43.3625 25.2828C43.5132 25.1903 43.6437 25.0681 43.7462 24.9237C43.8486 24.7793 43.9209 24.6155 43.9586 24.4424C43.9964 24.2693 43.9988 24.0903 43.9658 23.9163C43.9327 23.7424 43.8649 23.577 43.7664 23.4301L42.8734 22.0334C43.2568 21.5846 43.5883 21.0936 43.8614 20.5699L45.4452 20.9151C45.6641 20.9705 45.8933 20.9721 46.1131 20.9197C46.3531 20.8549 46.5707 20.7251 46.7423 20.5445C46.9138 20.364 47.0325 20.1396 47.0855 19.896L47.4671 18.1458C47.5103 17.9761 47.5193 17.7994 47.4934 17.6263C47.4676 17.4531 47.4075 17.287 47.3166 17.1376C47.2257 16.9882 47.1059 16.8587 46.9643 16.7566C46.8226 16.6545 46.662 16.5819 46.4919 16.5432ZM36.6932 21.1696C35.7489 21.1278 34.8428 20.7854 34.1063 20.192C33.3697 19.5986 32.8409 18.785 32.5964 17.8691C32.3518 16.9531 32.4043 15.9824 32.7462 15.0974C33.088 14.2125 33.7015 13.4593 34.4979 12.9468C35.2942 12.4344 36.232 12.1894 37.1754 12.2472C38.1188 12.3051 39.0189 12.6628 39.7454 13.2686C40.4718 13.8745 40.9869 14.6969 41.2159 15.6169C41.445 16.5368 41.3762 17.5066 41.0195 18.3856C40.6725 19.2408 40.0703 19.9676 39.2956 20.4661C38.5209 20.9646 37.6118 21.2104 36.6932 21.1696Z" fill="#C16C37"/>
</g>
<defs>
<clipPath id="clip0">
<rect width="40.0861" height="48.9942" fill="white" transform="translate(10.4351) rotate(12.2976)"/>
</clipPath>
</defs>
</svg>

<svg width="50" height="57" viewBox="0 0 50 57" fill="none" xmlns="http://www.w3.org/2000/svg"><g clip-path="url(#clip0)" fill="#C16C37"><path d="M32.79 35.543l-2.375-.518a11.461 11.461 0 0 0-.464-2.566l2.016-1.3c.272-.169.5-.4.668-.673a1.976 1.976 0 0 0-.037-2.07l-1.412-2.208a1.96 1.96 0 0 0-2-.875 1.96 1.96 0 0 0-.714.283l-2.048 1.327a11.52 11.52 0 0 0-2.135-1.5l.52-2.385a1.972 1.972 0 0 0-.265-1.482 1.957 1.957 0 0 0-1.232-.859l-2.554-.556a1.957 1.957 0 0 0-1.478.267 1.972 1.972 0 0 0-.858 1.238l-.52 2.385c-.869.059-1.729.216-2.563.469l-1.311-2.06a1.959 1.959 0 0 0-2.714-.59L9.118 23.29a1.972 1.972 0 0 0-.593 2.718l1.31 2.065a11.468 11.468 0 0 0-1.492 2.146l-2.331-.508a1.954 1.954 0 0 0-1.873.547 1.974 1.974 0 0 0-.506.943l-.559 2.564a1.972 1.972 0 0 0 .265 1.482c.28.44.724.748 1.232.859l2.376.518c.056.87.212 1.731.464 2.566l-2.016 1.3a1.97 1.97 0 0 0-.669.673 1.976 1.976 0 0 0 .037 2.07l1.412 2.208a1.96 1.96 0 0 0 2 .875 1.96 1.96 0 0 0 .714-.283l2.048-1.32a11.856 11.856 0 0 0 2.137 1.486l-.521 2.392a1.972 1.972 0 0 0 .265 1.482c.28.44.723.748 1.232.859l2.554.556c.508.111 1.04.015 1.477-.267.438-.283.747-.728.858-1.238l.521-2.391c.869-.06 1.728-.215 2.563-.463l1.312 2.053a1.961 1.961 0 0 0 2 .874 1.96 1.96 0 0 0 .714-.283l2.196-1.421a1.972 1.972 0 0 0 .593-2.719l-1.312-2.052a11.609 11.609 0 0 0 1.491-2.146l2.331.508c.31.074.634.073.944-.002a1.963 1.963 0 0 0 1.436-1.494l.56-2.564a1.972 1.972 0 0 0-.266-1.482 1.957 1.957 0 0 0-1.231-.859zm-14.401 6.84a6.514 6.514 0 0 1-3.8-1.432 6.548 6.548 0 0 1-2.22-3.408 6.583 6.583 0 0 1 2.782-7.23 6.514 6.514 0 0 1 7.705.46 6.55 6.55 0 0 1 2.165 3.443 6.584 6.584 0 0 1-2.808 7.128 6.528 6.528 0 0 1-3.825 1.039zM46.492 16.543l-1.616-.352a7.82 7.82 0 0 0-.29-1.742l1.37-.883c.174-.123.318-.282.423-.466a1.317 1.317 0 0 0-.027-1.409l-.95-1.503a1.344 1.344 0 0 0-1.846-.403l-1.393.899a8.308 8.308 0 0 0-1.463-.99l.365-1.674c.074-.34.01-.695-.177-.988a1.305 1.305 0 0 0-.82-.573l-1.764-.384a1.305 1.305 0 0 0-.985.179 1.315 1.315 0 0 0-.571.825l-.36 1.654a7.93 7.93 0 0 0-1.743.292l-.923-1.383a1.344 1.344 0 0 0-1.846-.403l-1.496.97a1.312 1.312 0 0 0-.6 1.362c.033.173.1.338.198.485l.891 1.403c-.383.449-.714.94-.988 1.463l-1.609-.35a1.4 1.4 0 0 0-.668-.005 1.349 1.349 0 0 0-.956 1.04l-.38 1.744c-.074.34-.01.696.177.989.187.292.482.498.82.572l1.616.352c.03.59.128 1.174.29 1.742l-1.322.907a1.313 1.313 0 0 0-.408 1.872l.958 1.498a1.307 1.307 0 0 0 1.36.604c.174-.034.339-.102.485-.201l1.394-.899c.45.384.94.716 1.463.99l-.354 1.623a1.317 1.317 0 0 0 .517 1.384c.142.1.304.171.474.209l1.737.378a1.303 1.303 0 0 0 1.367-.554c.097-.146.164-.31.197-.482l.348-1.596a7.961 7.961 0 0 0 1.742-.292l.892 1.404a1.344 1.344 0 0 0 1.846.402l1.495-.97a1.313 1.313 0 0 0 .404-1.853l-.893-1.397a7.82 7.82 0 0 0 .988-1.463l1.584.345a1.4 1.4 0 0 0 .668.005 1.355 1.355 0 0 0 .973-1.024l.381-1.75a1.317 1.317 0 0 0-.503-1.39 1.302 1.302 0 0 0-.472-.213zm-9.799 4.627a4.435 4.435 0 0 1-2.587-.978 4.459 4.459 0 0 1-1.51-2.323 4.483 4.483 0 0 1 1.902-4.922 4.437 4.437 0 0 1 5.247.322 4.46 4.46 0 0 1 1.47 2.348 4.483 4.483 0 0 1-1.92 4.85 4.445 4.445 0 0 1-2.602.703z"/></g><defs><clipPath id="clip0"><path fill="#fff" transform="rotate(12.298 5.218 48.431)" d="M0 0h40.086v48.994H0z"/></clipPath></defs></svg>
